X: 1
T: Vain Belinda
T: Flute
C: Georg Monro (1680-1731)
R: reel
Z: 2020 John Chambers <jc:trillian.mit.edu>
S: Facebook post 2020-1-29
M: 2/4
L: 1/8
K: C
% - - - - - - - - - -
[|\
c/d/e/f/ gf | ed ca | g2 f2 | e4 |\
c/d/e/f/ gf | ed cc' | b2 a2 | g4 |]\
g2 ab | c'2 c2 | d2 e2 | f3g |
ag fe | dB cf | e2 d2 | c/d/c/d/ e/f/e/f/ |\
gf/e/ d/c/B/A/ | G4 | c'2 ba | gf/e/ dc |\
d2 B2 | c4 |]

